src/assets/icons/weeks,fancy,31.svg

<svg width="48" height="48" viewBox="0 0 48 48" fill="none" xmlns="http://www.w3.org/2000/svg">
<rect opacity="0.2" x="4" y="6" width="40" height="40" rx="4" fill="black"/>
<path d="M17.0994 41.2784C21.6733 41.2784 24.9446 38.7628 24.9347 35.2827C24.9446 32.7472 23.3338 30.9375 20.3409 30.5597V30.4006C22.6179 29.9929 24.1889 28.3821 24.179 26.0952C24.1889 22.8835 21.375 20.358 17.1591 20.358C12.983 20.358 9.84091 22.804 9.78125 26.3239H13.9077C13.9574 24.7727 15.3793 23.7685 17.1392 23.7685C18.8793 23.7685 20.0426 24.8224 20.0327 26.3537C20.0426 27.9545 18.6804 29.0384 16.7216 29.0384H14.8224V32.2003H16.7216C19.0284 32.2003 20.4702 33.3537 20.4602 34.9943C20.4702 36.6151 19.0781 37.7287 17.1094 37.7287C15.2102 37.7287 13.7884 36.7344 13.7088 35.2429H9.37358C9.44318 38.8026 12.625 41.2784 17.0994 41.2784ZM36.8888 20.6364H32.842L27.8008 23.8281V27.6463L32.4641 24.723H32.5835V41H36.8888V20.6364Z" fill="black"/>
<g opacity="0.4">
<path d="M10 4C10 2.89543 10.8954 2 12 2C13.1046 2 14 2.89543 14 4V8C14 9.10457 13.1046 10 12 10C10.8954 10 10 9.10457 10 8V4Z" fill="black"/>
<path d="M34 4C34 2.89543 34.8954 2 36 2C37.1046 2 38 2.89543 38 4V8C38 9.10457 37.1046 10 36 10C34.8954 10 34 9.10457 34 8V4Z" fill="black"/>
</g>
<path fill-rule="evenodd" clip-rule="evenodd" d="M10 6.00869C7.52043 6.04456 6.11466 6.22849 5.17157 7.17157C4 8.34315 4 10.2288 4 14V16H44V14C44 10.2288 44 8.34315 42.8284 7.17157C41.8853 6.22849 40.4796 6.04456 38 6.00869V8C38 9.10457 37.1046 10 36 10C34.8954 10 34 9.10457 34 8V6H14V8C14 9.10457 13.1046 10 12 10C10.8954 10 10 9.10457 10 8V6.00869Z" fill="black"/>
</svg>

<svg xmlns="http://www.w3.org/2000/svg" width="48" height="48" fill="none" viewBox="0 0 48 48">
  <rect width="40" height="40" x="4" y="6" fill="#000" opacity=".2" rx="4"/>
  <path fill="#000" d="M17.1 41.278c4.573 0 7.845-2.515 7.835-5.995.01-2.536-1.601-4.346-4.594-4.723v-.16c2.277-.407 3.848-2.018 3.838-4.305.01-3.211-2.804-5.737-7.02-5.737-4.176 0-7.318 2.446-7.378 5.966h4.127c.05-1.551 1.471-2.556 3.231-2.556 1.74 0 2.904 1.054 2.894 2.586.01 1.6-1.353 2.684-3.311 2.684h-1.9V32.2h1.9c2.306 0 3.748 1.154 3.738 2.794.01 1.621-1.382 2.735-3.35 2.735-1.9 0-3.322-.995-3.401-2.486H9.374c.07 3.56 3.251 6.035 7.725 6.035zm19.789-20.642h-4.047l-5.041 3.192v3.818l4.663-2.923h.12V41h4.305V20.636z"/>
  <g opacity=".4">
    <path fill="#000" d="M10 4a2 2 0 114 0v4a2 2 0 11-4 0V4zM34 4a2 2 0 114 0v4a2 2 0 11-4 0V4z"/>
  </g>
  <path fill="#000" fill-rule="evenodd" d="M10 6.009c-2.48.036-3.885.22-4.828 1.163C4 8.343 4 10.229 4 14v2h40v-2c0-3.771 0-5.657-1.172-6.828-.943-.944-2.348-1.127-4.828-1.163V8a2 2 0 11-4 0V6H14v2a2 2 0 11-4 0V6.009z" clip-rule="evenodd"/>
</svg>
